icons/lemon.svg

<?xml version="1.0" standalone="no"?><!-- Generator: Gravit.io --><svg xmlns="http://www.w3.org/2000/svg" xmlns:xlink="http://www.w3.org/1999/xlink" width="96" height="96"><path d=" M 48 82.99698660714286 Q 46.6 82.89698660714286 46 82.69698660714286 C 44.9 81.69698660714286 43.9 80.49698660714286 43 79.19698660714286 C 43 79.09698660714285 41.3 76.89698660714286 41.2 76.79698660714286 C 39.8 75.19698660714286 38.3 73.79698660714286 36.5 72.49698660714286 C 33.4 70.19698660714286 30.7 67.29698660714286 28.6 63.99698660714286 C 25.8 59.09698660714286 24.2 53.59698660714286 24 47.99698660714286 C 24.2 42.39698660714286 25.8 36.89698660714286 28.6 31.99698660714286 C 30.7 28.696986607142858 33.4 25.79698660714286 36.5 23.49698660714286 C 38.3 22.196986607142858 39.8 20.79698660714286 41.2 19.196986607142858 C 41.3 19.09698660714286 43 16.896986607142857 43 16.79698660714286 C 43.9 15.496986607142858 44.9 14.296986607142859 46 13.296986607142859 C 46.7 12.996986607142858 47.21074221031902 12.996986607142858 48 12.996986607142858 C 48.78925778968098 12.996986607142858 49.3 12.996986607142858 50 13.296986607142859 C 51.1 14.296986607142859 52.1 15.496986607142858 53 16.79698660714286 C 53 16.896986607142857 54.7 19.09698660714286 54.8 19.196986607142858 C 56.2 20.79698660714286 57.7 22.196986607142858 59.5 23.49698660714286 C 62.6 25.79698660714286 65.3 28.696986607142858 67.4 31.99698660714286 C 70.2 36.89698660714286 71.8 42.39698660714286 72 47.99698660714286 C 71.8 53.59698660714286 70.2 59.09698660714286 67.4 63.99698660714286 C 65.3 67.29698660714286 62.6 70.19698660714286 59.5 72.49698660714286 C 57.7 73.79698660714286 56.2 75.19698660714286 54.8 76.79698660714286 C 54.7 76.89698660714286 53 79.09698660714285 53 79.19698660714286 C 52.1 80.49698660714286 51.1 81.69698660714286 50 82.69698660714286 C 49.4 82.89698660714286 48.1 82.99698660714286 48 82.99698660714286 L 48 82.99698660714286 M 48.3 90.99698660714286 C 48.2 90.99698660714286 48.1 90.99698660714286 48 90.99698660714286 C 45.7 91.09698660714285 43.3 90.49698660714286 41.4 89.19698660714286 C 39.4 87.59698660714285 37.8 85.69698660714286 36.4 83.59698660714285 L 35.1 81.99698660714286 C 34.1 80.89698660714286 33 79.89698660714286 31.8 78.99698660714286 C 27.8 75.99698660714286 24.4 72.29698660714286 21.8 68.09698660714285 C 18.2 61.99698660714286 16.2 55.09698660714286 16 47.99698660714286 C 16.2 40.89698660714286 18.2 33.99698660714286 21.8 27.896986607142857 C 24.4 23.696986607142858 27.8 19.99698660714286 31.8 16.99698660714286 C 33 16.09698660714286 34.1 15.096986607142858 35.1 13.996986607142858 L 36.4 12.396986607142859 C 37.8 10.296986607142859 39.4 8.396986607142859 41.4 6.796986607142858 C 43.3 5.496986607142858 45.7 4.896986607142859 48 4.996986607142858 C 50.3 4.896986607142859 52.7 5.496986607142858 54.6 6.796986607142858 C 56.6 8.396986607142859 58.2 10.296986607142859 59.6 12.396986607142859 L 60.9 13.996986607142858 C 61.9 15.096986607142858 63 16.09698660714286 64.2 16.99698660714286 C 68.2 19.99698660714286 71.6 23.696986607142858 74.2 27.896986607142857 C 77.8 33.99698660714286 79.8 40.89698660714286 80 47.99698660714286 C 79.8 55.09698660714286 77.8 61.99698660714286 74.2 68.09698660714285 C 71.6 72.29698660714286 68.2 75.99698660714286 64.2 78.99698660714286 C 63 79.89698660714286 61.9 80.89698660714286 60.9 81.99698660714286 L 59.6 83.59698660714285 C 58.2 85.69698660714286 56.6 87.59698660714285 54.6 89.19698660714286 C 52.7 90.49698660714286 50.3 91.09698660714285 48 90.99698660714286" fill-rule="evenodd" fill="#454545" stroke="none"/></svg>

<svg xmlns="http://www.w3.org/2000/svg" width="96" height="96"><path d="M48 82.997q-1.4-.1-2-.3c-1.1-1-2.1-2.2-3-3.5 0-.1-1.7-2.3-1.8-2.4-1.4-1.6-2.9-3-4.7-4.3-3.1-2.3-5.8-5.2-7.9-8.5-2.8-4.9-4.4-10.4-4.6-16 .2-5.6 1.8-11.1 4.6-16 2.1-3.3 4.8-6.2 7.9-8.5 1.8-1.3 3.3-2.7 4.7-4.3.1-.1 1.8-2.3 1.8-2.4.9-1.3 1.9-2.5 3-3.5.7-.3 1.21-.3 2-.3s1.3 0 2 .3c1.1 1 2.1 2.2 3 3.5 0 .1 1.7 2.3 1.8 2.4 1.4 1.6 2.9 3 4.7 4.3 3.1 2.3 5.8 5.2 7.9 8.5 2.8 4.9 4.4 10.4 4.6 16-.2 5.6-1.8 11.1-4.6 16-2.1 3.3-4.8 6.2-7.9 8.5-1.8 1.3-3.3 2.7-4.7 4.3-.1.1-1.8 2.3-1.8 2.4-.9 1.3-1.9 2.5-3 3.5-.6.2-1.9.3-2 .3m.3 8H48c-2.3.1-4.7-.5-6.6-1.8-2-1.6-3.6-3.5-5-5.6l-1.3-1.6c-1-1.1-2.1-2.1-3.3-3-4-3-7.4-6.7-10-10.9-3.6-6.1-5.6-13-5.8-20.1.2-7.1 2.2-14 5.8-20.1 2.6-4.2 6-7.9 10-10.9 1.2-.9 2.3-1.9 3.3-3l1.3-1.6c1.4-2.1 3-4 5-5.6 1.9-1.3 4.3-1.9 6.6-1.8 2.3-.1 4.7.5 6.6 1.8 2 1.6 3.6 3.5 5 5.6l1.3 1.6c1 1.1 2.1 2.1 3.3 3 4 3 7.4 6.7 10 10.9 3.6 6.1 5.6 13 5.8 20.1-.2 7.1-2.2 14-5.8 20.1-2.6 4.2-6 7.9-10 10.9-1.2.9-2.3 1.9-3.3 3l-1.3 1.6c-1.4 2.1-3 4-5 5.6-1.9 1.3-4.3 1.9-6.6 1.8" fill-rule="evenodd" fill="#454545"/></svg>
